X:1
T:Title
%%score { ( 1 3 ) | ( 2 4 ) }
L:1/8
M:4/4
K:Ab
V:1 treble nm="Grand Piano"
V:3 treble 
V:2 bass 
V:4 bass 
V:1
 z4 z2[Q:1/4=100] A2 | G2 F2 E2 D2 | C6 C>D | z4 [=DF]2 z2 | [CA]6 G>A | BBBc BAGA | B6 z2 | %7
 [B,EG]3 [A,=DF][K:bass] [G,B,E]2 [F,B,D]2 | [G,B,E]6 E>E | A2 B2 c2 d2 | e6 z2 | %11
 [EAc][FAd][EAc][DFB] AGFG |[M:3/8] [CA]3 |[M:3/4] B>c BA GA |[M:4/4] z2 B4 z2 | z2 d4 z2 | %16
 z2 e4 z2 | [Bd][Ad][Gd]d d[Bd][Ac][GB] | c6 E2 | F2 G2 A2 B2 | [=Ec]6 [FA]>[GB] | %21
 [Ac]2 [Ac]2 [Ad]2 [Ae]2 | [Af]6 e2 |[M:19/16] c-<cA-<AE/-E/-E/-E/-E/-E-<E[B,=DF] | %24
[M:4/4] [B,EG] [Fd]3 [Ec]3 [DB] |[M:3/4] [CA]6 |] %26
V:2
 z4 z2 A,2 | G,2 F,2 E,2 D,2 | C,6 [F,A,]>[=E,A,_C] | [E,A,C]3 [B,,A,] .[B,,A,]2 [E,D]2 | %4
 [A,,E,]6 [E,E]>[E,F,E] | [E,G,E][E,G,E][E,G,E][G,A,E] [G,B,E][F,B,D][E,B,E][F,B,E] | %6
 [G,B,E]3 [F,A,] [E,G,]2 A,,>A,, | B,,3 B,, B,,2 B,,2 | E,6 E,>E, | A,2 B,2 C2 [F,A,F]2 | E6 z2 | %11
 E,E,E,E, [E,CE][E,B,E][E,A,D][E,B,D] |[M:3/8] [A,,A,]3 | %13
[M:3/4] [G,B,E]>[A,E] [G,B,E][F,B,=D] [E,B,E][F,B,E] |[M:4/4] z2 E4[K:treble] z2 | z2 [EG]2 z4 | %16
 z2 B,2 z4 | [E,B,][E,B,][E,B,][E,A,C] [E,G,E][E,E][E,E][E,E] | [A,EA]6 E,2 | %19
 [E,=D]2 [E,_DE]2 [E,CE]2 [E,B,E]2 | [C,G,]6 [C,C]>[C,C] | [F,C]2 [F,C]2 [F,D]2 [E,C]2 | %22
 [=D,_C]6 [E,E]2 |[M:19/16] [C,C]-<[C,C][A,,A,]-<[A,,A,]E,/-E,/-E,/-E,/-E,/-E,-<E,B,, | %24
[M:4/4] E, [E,G,]3 [E,A,]3 [E,G,] |[M:3/4] [A,,E,]6 |] %26
V:3
 x8 | x8 | x8 | E3 E z F, G2 | x8 | x8 | z2 z =D E2 [CEA]>[CEA] | x4[K:bass] x4 | x8 | x8 | %10
 z2 A,B, C2 [Fe]>[Fd] | x8 |[M:3/8] x3 |[M:3/4] x6 |[M:4/4] B2 z z/ =A,/ B,2 c2 | %15
 d2 z z/ _G/ =G2 =d2 | [Ge]2 G>A B2 [DGB]>[CAc] | x8 | x8 | x8 | x8 | x8 | x8 |[M:19/16] x19/2 | %24
[M:4/4] x8 |[M:3/4] x6 |] %26
V:4
 x8 | x8 | x8 | x8 | x8 | x8 | x8 | x8 | x8 | x8 | [G,B,]2 F,G, A,2 B,>B, | x8 |[M:3/8] x3 | %13
[M:3/4] x6 |[M:4/4] [G,B,E]2 [G,B,]>_G, =G,2[K:treble] [=A,E]2 | %15
 [B,EG]2 B,->[B,-=D] [B,E]2 [B,A]2 | [E,B,]2 E,->[E,-C] [E,D]2 E,>E, | x8 | x8 | x8 | x8 | x8 | %22
 x8 |[M:19/16] x19/2 |[M:4/4] x8 |[M:3/4] x6 |] %26

